images/TCAD.svg

<svg height="250" viewBox="0 0 250 250" width="250" xmlns="http://www.w3.org/2000/svg"><path d="m0 23.4375c0-12.945312 10.492188-23.4375 23.4375-23.4375h203.125c12.945312 0 23.4375 10.492188 23.4375 23.4375v203.125c0 12.945312-10.492188 23.4375-23.4375 23.4375h-203.125c-12.945312 0-23.4375-10.492188-23.4375-23.4375zm0 0" fill="#11975f"/><g fill="#fff"><path d="m153.414062 209.554688h-14.761718l7.285156-18.304688zm0 0"/><path d="m210.175781 203.820312c0-9.796874-4.964843-14.117187-14.503906-14.117187h-8.503906v29.648437h8.894531c9.34375 0 14.113281-4.1875 14.113281-13.984374zm0 0"/><path d="m23.4375 166.015625c-8.628906 0-15.625 6.996094-15.625 15.625v44.921875c0 8.628906 6.996094 15.625 15.625 15.625h203.125c8.628906 0 15.625-6.996094 15.625-15.625v-44.921875c0-8.628906-6.996094-15.625-15.625-15.625zm84.8125 43.347656h10.117188c-1.480469 11.988281-8.3125 19.269531-23.203126 19.269531-14.113281 0-22.621093-7.34375-22.621093-22.492187v-2.640625c0-14.632812 9.152343-22.882812 23.265625-22.882812 12.441406 0 20.5625 5.996093 22.300781 18.113281h-9.988281c-.839844-6.125-4.707032-9.667969-12.3125-9.667969-8.699219 0-13.597656 4.769531-13.597656 14.824219v1.933593c0 9.28125 4.769531 14.050782 13.46875 14.050782 8.1875-.003906 11.730468-3.804688 12.570312-10.507813zm-40.300781-27.777343v8.183593h-14.824219v37.769531h-9.539062v-37.769531h-14.179688v-8.183593zm92.875 45.953124h9.730469l-19.71875-45.953124h-9.796876l-19.335937 45.953124h9.859375l3.996094-10.183593h21.074218zm58.824219-21.65625c0 14.890626-9.023438 21.65625-23.136719 21.65625h-18.691407v-45.953124h18.242188c14.242188 0 23.589844 6.832031 23.589844 21.847656zm0 0" fill-rule="evenodd"/><path d="m74.21875 28.320312h34.179688c0 18.875-15.304688 34.179688-34.179688 34.179688zm0 0"/><path d="m142.578125 28.320312c-18.875 0-34.179687 15.304688-34.179687 34.179688v75.195312h34.179687v-75.195312h34.179687v-34.179688zm0 0"/></g></svg>

<svg xmlns="http://www.w3.org/2000/svg" xmlns:xlink="http://www.w3.org/1999/xlink" width="250px" height="250px" viewBox="0 0 250 250" version="1.1">
<g id="surface1">
<path style=" stroke:none;fill-rule:nonzero;fill:rgb(6.666667%,59.215689%,37.254903%);fill-opacity:1;" d="M 0 23.4375 C 0 10.492188 10.492188 0 23.4375 0 L 226.5625 0 C 239.507812 0 250 10.492188 250 23.4375 L 250 226.5625 C 250 239.507812 239.507812 250 226.5625 250 L 23.4375 250 C 10.492188 250 0 239.507812 0 226.5625 Z M 0 23.4375 "/>
<path style=" stroke:none;fill-rule:nonzero;fill:rgb(100%,100%,100%);fill-opacity:1;" d="M 153.414062 209.554688 L 138.652344 209.554688 L 145.9375 191.25 Z M 153.414062 209.554688 "/>
<path style=" stroke:none;fill-rule:nonzero;fill:rgb(100%,100%,100%);fill-opacity:1;" d="M 210.175781 203.820312 C 210.175781 194.023438 205.210938 189.703125 195.671875 189.703125 L 187.167969 189.703125 L 187.167969 219.351562 L 196.0625 219.351562 C 205.40625 219.351562 210.175781 215.164062 210.175781 205.367188 Z M 210.175781 203.820312 "/>
<path style=" stroke:none;fill-rule:evenodd;fill:rgb(100%,100%,100%);fill-opacity:1;" d="M 23.4375 166.015625 C 14.808594 166.015625 7.8125 173.011719 7.8125 181.640625 L 7.8125 226.5625 C 7.8125 235.191406 14.808594 242.1875 23.4375 242.1875 L 226.5625 242.1875 C 235.191406 242.1875 242.1875 235.191406 242.1875 226.5625 L 242.1875 181.640625 C 242.1875 173.011719 235.191406 166.015625 226.5625 166.015625 Z M 108.25 209.363281 L 118.367188 209.363281 C 116.886719 221.351562 110.054688 228.632812 95.164062 228.632812 C 81.050781 228.632812 72.542969 221.289062 72.542969 206.140625 L 72.542969 203.5 C 72.542969 188.867188 81.695312 180.617188 95.808594 180.617188 C 108.25 180.617188 116.371094 186.613281 118.109375 198.730469 L 108.121094 198.730469 C 107.28125 192.605469 103.414062 189.0625 95.808594 189.0625 C 87.109375 189.0625 82.210938 193.832031 82.210938 203.886719 L 82.210938 205.820312 C 82.210938 215.101562 86.980469 219.871094 95.679688 219.871094 C 103.867188 219.867188 107.410156 216.066406 108.25 209.363281 Z M 67.949219 181.585938 L 67.949219 189.769531 L 53.125 189.769531 L 53.125 227.539062 L 43.585938 227.539062 L 43.585938 189.769531 L 29.40625 189.769531 L 29.40625 181.585938 Z M 160.824219 227.539062 L 170.554688 227.539062 L 150.835938 181.585938 L 141.039062 181.585938 L 121.703125 227.539062 L 131.5625 227.539062 L 135.558594 217.355469 L 156.632812 217.355469 Z M 219.648438 205.882812 C 219.648438 220.773438 210.625 227.539062 196.511719 227.539062 L 177.820312 227.539062 L 177.820312 181.585938 L 196.0625 181.585938 C 210.304688 181.585938 219.652344 188.417969 219.652344 203.433594 Z M 219.648438 205.882812 "/>
<path style=" stroke:none;fill-rule:nonzero;fill:rgb(100%,100%,100%);fill-opacity:1;" d="M 74.21875 28.320312 L 108.398438 28.320312 C 108.398438 47.195312 93.09375 62.5 74.21875 62.5 Z M 74.21875 28.320312 "/>
<path style=" stroke:none;fill-rule:nonzero;fill:rgb(100%,100%,100%);fill-opacity:1;" d="M 142.578125 28.320312 C 123.703125 28.320312 108.398438 43.625 108.398438 62.5 L 108.398438 137.695312 L 142.578125 137.695312 L 142.578125 62.5 L 176.757812 62.5 L 176.757812 28.320312 Z M 142.578125 28.320312 "/>
</g>
</svg>
